X: 402
T: Posavski Drmes
O: Croatia
F: http://www.youtube.com/watch?v=me4ZVAjRZkY
W: From Deborah Jones' transcription
M: 2/4
L: 1/16
K: C
|:"C" g2g2 a2g2 | g^fgf g2e2 |\
 [ce]2[ce]2 [df]2[ce]2| [ce][B^d][ce][Bd] [ce]2[Gc]2|
"F" [Ac]2[Bd]2 [ce]2[df]2 | "C" [ce][B^d][ce][Bd] [ce]2[Gc]2|\
"G7" [Gc]2[Bd]2 [ce]2[Bd]2| "C" [Gc][GB][Gc][GB] [Gc]4|
L:1/8
"C" ce gg| "F"aa "C"ge|\
 gg "F" aa|"C"gg ec|
"F" [Ac][Bd] [ce][df] | "C" [ce][B^d] [ce][Gc]|\
"G7" [Gc][Bd] [ce][Bd]|[Ac][Ac] [Ac]2:|



